X:1594
T:Doodely Doodely Dank
O:england
R:slip jig
H:Played by Con Cassidy.
D:Paul O'Shaughnessy & Paul McGrattan: Within a Mile from Dublin
M:9/8
K:G
B/c/dB BAB g2A|BcB B2c dBG|B/c/dB BAB g2g|faf ege dBA:|
|:fdd def g2e|fdd dgf e^cA|fdd def g2e|fed efe efg:|


